X:1
T:09 - Vedi le valli e i campi
T:Luca Marenzio (1556 - 1599) 1º Libro di Madrigali a quattro voci (Venetia, 1592)
T:Jacopo Sannazaro
T:09 - Vedi le valli e i campi
T:© 2018 Ed. Marcos Mato
T:© 2018 Ed. Marcos Mato
T:© 2018 Ed. Marcos Mato
T:© 2018 Ed. Marcos Mato
T:© 2018 Ed. Marcos Mato
C:Luca Marenzio (1556 - 1599)
C:1º Libro di Madrigali a quattro voci (Venetia, 1592)
Z:Jacopo Sannazaro
Z:© 2018 Ed. Marcos Mato
%%score [ 1 2 3 4 ]
L:1/8
M:4/4
K:C
V:1 treble nm="Soprano" snm="Sop."
V:2 alto2 nm="Alto" snm="A."
V:3 alto transpose=-12 nm="Tenor" snm="T."
V:4 tenor nm="Basso" snm="Bajo"
V:1
 c4 | [Fg]2 |[M:4/2] c8 G8 | z2 g3 g d2 e3 e e2 d2 | c4 e4 dc c4 B2 | c8 g8 | e4 z4 z8 | %7
w: ||Ve- di,|ve- di le val- li\_e\_i cam- pi|che si smal- * ta- *|no, ve-|di,|
 c3 c d4 e2 e2 z4 | z4 e3 e ^f4 g2 g2 | z4 z2 g2 =f3 d e3 c | d3 d c3 g f3 d e3 c | d3 d c4 z8 | %12
w: di co- lor mil- le,|di co- lor mil- le,|et con la pi- va\_e'l|cro- ta- lo, et con la pi- va\_e'l|cro- ta- lo,|
 z8 e2 f2 g4 | z4 d3 g ^f3 f g4 | z2 d4 d2 e3 e d4 | z4 c3 c g4 z2 g2 | f3 d e3 c d3 d c4 | %17
w: i pas- tor|lie- ti sal- ta- no,|lie- ti sal- ta- no,|sal- ta- no, et|con la pi- va\_e'l cro- ta- lo,|
 c3 c g4 g3 g c2 z2 | c3 c g4 g3 g c2 c2 | cBcd c2 d2 e4 e2 c2 | d4 z4 d3 g ^f3 f | %21
w: sal- ta- no, sal- ta- no,|sal- ta- no, sal- ta- no, in-|tor- * * * * no\_ai fon- ti\_i pas-|tor lie- ti sal- ta-|
 g4 g3 g e4 z2 c2- | cc F4 f3 f d2 d4- | d4 ^c4 z2 d3 d e2 | f2 f2 e4 e4 z4 | z2 e2 d3 c B4 z4 | %26
w: no, sal- ta- no, sal-|* ta- no, sal- ta- no. Ve-|* di, ve- di\_il mon-|tan di Fri- so|et no- ta- lo,|
 z4 A6 A2 A4 | ^G8 G8 | z2 A2 A2 B2 c2 B2 d3 d | d4 B4 c4 d4 | e3 f g2 G2 A2 c2 B3 B | c8 z8 | %32
w: Clo- ni- co|dol- ce,|et non ti vin- ca\_il te- di-|o ch'in po- chi|di con- vien che'l sol per- co- ta-|lo,|
 z4 z2 B2 c4 d4 | e3 f g2 G2 A2 c2 B3 B | c16 |] %35
w: ch'in po- chi|di con- vien che'l sol per- co- ta-|lo.|
V:2
 C4 | [A,c]2 |[M:4/2] z8 z4 c4- | c4 B4 z2 c3 c G2 | A3 A A2 G2 F2 E2 D3 D | C4 c8 B4 | c4 G4 z8 | %7
w: ||Ve-|* di, ve- di le|val- li\_e\_i cam- pi che si smal- ta-|no, ve- di,|ve- di|
 z8 G3 G A4 | B3 B c4 A4 G4 | z4 z2 G2 A3 B c3 A | B3 B c3 G A3 B c3 A | B3 B c4 z8 | z8 G2 A2 B4 | %13
w: di co- lor|di co- lor mil- le,|et con la pi- va\_e'l|cro- ta- lo, et con la pi- va\_e'l|cro- ta- lo,|i pas- tor|
 A4 B4 A3 A B4 | A3 A B4 c3 c B4 | z8 G3 G E2 G2 | A3 B c3 A B3 B c4 | z4 G3 G G4 z2 A2- | %18
w: lie- ti sal- ta- no,|sal- ta- no, sal- ta- no,|sal- ta- no, et|con la pi- va\_e'l cro- ta- lo|sal- ta- no, sal-|
 AG A2 z2 G3 G C2 z2 G2 | AGAB A2 B2 c4 c2 A2 | B4 A4 B4 A3 A | B4 c3 c G4 A3 A | c4 _B3 B A4 A4- | %23
w: * ta- no, sal- ta- no, in|tor- * * * * no\_ai fon- ti\_i pas-|tor lie- ti sal- ta-|no, sal- ta- no, sal- ta-|no, sal- ta- no. Ve-|
 A4 A4 z2 A3 A c2 | c2 d2 B4 c4 z4 | z2 c2 c3 A G4 z4 | z4 F6 F2 E4 | E8 E8 | %28
w: * di, ve- di\_il mon-|ton di Fri- so|et no- ta- lo,|Clo- ni- no|dol- ce,|
 z2 E2 E2 G2 G2 G2 A3 A | B4 z2 G2 A4 B4 | c4 G4 F4 D4 | C3 B, A,2 C2 D2 F2 E3 E | F4 D4 F6 D2 | %33
w: et non ti vin- ca\_il te- di-|o ch'in po- chi|di, ch'in po- chi|di con- vien che'l sol per- co- ta-|lo, ch'io po- chi|
 G3 F E3 G F3 E G3 G | G16 |] %35
w: di con- vien che'l sol per- co- ta-|lo.|
V:3
 E4 | [G,A]2 |[M:4/2] z8 E8 | D8 z8 | z16 | z4 E8 D4 | z2 E3 E D2 C3 C C2 B,2 | %7
w: ||Ve-|di,||ve- di,|ve- di le val- li\_e\_i cam- pi|
 A,2 C2 B,3 B, C4 E3 E | ^F4 G2 G2 z4 E3 E | ^F4 G2 D2 z8 | z16 | z4 z2 E2 EDEF E2 F2 | %12
w: che si smal- ta- no di co-|lor mil- le, di co-|lor mil- le,||in- tor- * * * * no\_ai|
 G4 G2 F2 E4 D3 G | ^F3 F G4 z4 D3 G | ^F3 F G8 z2 G2 | =F3 D E3 C D3 D C4 | z4 C3 C G2 G2 C3 D | %17
w: fon- ti\_i pas- tor lie- ti|sal- ta- no, lie- ti|sal- ta- no, et|con la pi- va\_e'l cro- ta- lo,|sal- ta- no, et con la|
 E3 F D3 D C3 G F3 D | E3 C D3 D E8 | z16 | D3 G ^F3 F G4 z4 | D3 D E4 E3 E =F4 | A3 A D4 F8 | %23
w: pi- va\_e'l cro- ta- lo, et con la|pi- va\_e'l cro- ta- lo||lie- ti sal- ta- no,|sal- ta- no, sal- ta- no,|sal- ta- no. Ve-|
 E8 z2 F3 F G2 | A2 A2 ^G4 A4 F4 | =G4 z4 z2 G2 C3 D | E4 C6 C2 C4 | B,8 B,8 | %28
w: di, ve- di\_il mon-|tan di Fri- so\_et se-|gna et no- ta-|lo, Clo- ni- co|dol- ce,|
 z2 C2 C2 D2 E2 G2 ^F3 F | G4 D4 =F4 F4 | G3 F E4 z8 | z4 E4 F4 G4 | A3 A G2 G,2 A,2 C2 B,3 B, | %33
w: et non ti vin- ca\_il te- di-|o ch'in po- chi|di, _ _|ch'in po- chi|di con- vien che'l sol per- co- ta-|
 C4 B,2 C4 C2 D3 D | C16 |] %35
w: lo, che'l sol per- co- ta-|lo.|
V:4
 C4 | [C,F]2 |[M:4/2] z8 C8 | G,8 z8 | z16 | z4 C8 G,4 | z2 C3 C G,2 A,3 A, A,2 G,2 | %7
w: ||Ve-|di,||ve- di,|ve- di le val- li\_e\_i cam- pi|
 F,2 E,2 D,3 D, C,4 C3 C | D4 E2 E2 z4 C3 C | A,4 G,2 G,2 z8 | z16 | z4 z2 C2 CB,CD C2 D2 | %12
w: che si smal- ta- no di co-|lor mil- le, di co-|lor mil- le,||in- tor- * * * * no\_ai|
 E4 E2 D2 C4 G,A,B,C | D2 D2 G,A,B,C D2 D2 G,A,B,C | D2 D,2 G,3 G, C,4 z2 G,2 | %15
w: fon- ti\_i pas- tor lie- * * *|* ti, lie- * * * * ti, lie- * * *|* ti sal- ta- no, et|
 A,3 B, C3 A, B,3 B, C4 | z8 z2 G,2 A,3 B, | C3 A, B,3 B, C3 G, A,3 B, | C3 A, B,3 B, C8 | z16 | %20
w: con la pi- va\_e'l cro- ta- lo,|et con la|pi- va\_e'l cro- ta- lo, et con la|pi- va\_e'l cro- ta- lo||
 G,A,B,C D2 D2 G,A,B,C D2 D,2 | G,3 G, C,4 C3 C F,4 | F3 F _B,4 D8 | A,8 z2 D3 D C2 | %24
w: lie- * * * * ti, lie- * * * * ti|sal- ta- no, sal- ta- no,|sal- ta- no. Ve-|di, ve- di\_il mon-|
 F2 D2 E4 A,4 D4 | C4 z4 z2 G,2 A,3 B, | C4 F,6 F,2 A,4 | E,8 E,8 | z2 A,2 A,2 G,2 C2 E2 D3 D | %29
w: tan di Fri- so\_et se-|gna et no- ta-|lo, Clo- ni- co|dol- ce,|et non ti vin- ca\_il te- di-|
 G,4 G,4 F,4 D,4 | C,8 z8 | z4 C4 _B,4 G,4 | F,4 G,4 F,4 D,4 | C,3 D, E,2 E,2 F,2 A,2 G,3 G, | %34
w: o ch'in po- chi|di,|ch'in po- chi|di, ch'in po- chi|di con- vien che'l sol per- co- ta-|
 C,16 |] %35
w: lo.|

